X:31
T:Unknown Glasgow Jig 3
Z:robin.beech@mcgill.ca
S:Christina Smith, Victoria Bar, Glasgow
R:jig
M:6/8
L:1/8
K:A
EAc e2f | ecA a2f | ecA EAc | d3 BAF | EAce2f | ecA a2f |
ecA EAc | BcB A2F | EAce2f | ecA a2f | ecA EAc | BcB BAF | EAce2f |
ecA a2f | ecA EAc | BcB Ace |: f3 fec | efg a2f | ecf ecf |
eAB cde | f3 fec | efg a2f | ecA EAc |1 BcB Ace :|2 BcB A2F |]
